X:141
T:Mrs Savage's Whim
W:Longways for as many as will.
B:Playford<92>s Dancing Master, Vol 2, 1713-28
Z:vmp.Mike Hicken 2015 www.village-music-project.org.uk
L:1/4
M:3/2
Q:1/2=100
K:Bm
P:A
fB2fg2|ec2 d/e/ fB|fB2fg2|e d/e/ cfdB|fB2fg2|g f/g/ edeA|fd2abB|cdecde:|
P:B
fd2 f/g/a2|ec2 e/f/g2|dB2 d/e/ fF|B c/d/e/d/ c/B/ ^AF|fB2fg2|ec2 d/e/fF|dB2dcF|FBc^AB2 |]

